X:181
T:Devil Among the Tailors
S:Colin Hume's website,  colinhume.com  - chords can also be printed below the stave.
Q:3/8=120
M:6/8
L:1/8
C:Thompson, 1773
K:A
P:A
|: cB | "A"AcA cAc | "/"ece aea | "D"faf dfd | "A"eae cec |\
"Bm"dfd "E7"BdB | "A"cec "F#m"AcA | "Bm"BdB "E7"GBG | "A"A2A A :|
P:B
|: cd | "A"efe efe | "E/G#"ded ded | "F#m"cdc cdc | "E7"BcB Bcd |\
"A"efe efe | "Bm"ded ded | "C#m"cdc "D"cdc | "E"B3 "E7"B2E |
"A"AcA cAc | "/"ece aea | "D"faf dfd | "A"eae cec |\
"Bm"dfd "E7"BdB | "A"cec "F#m"AcA | "Bm"BdB "E7"GBG | "A"A2A A :|

